X:1
T:Zeb Tourney's Girl
M:4/4
L:1/8
K:E
 E E2 EG B G2| F E3 z4| E E2 EG B G2| E4 z2 z E| A A2 c e2 fe| c B2 G B2 z G|\
 F F2 B d2 cB| B4 z4| E E2 GB B2 G| F E3 z2 z E| E E2 EG B G2| E4 z2F-G|\
 Ac c e3 fe| c B2 G B3 G| B B2 BB AF-D| E4 z4|
